icons/lines/driver-refresh.svg

<svg xmlns="http://www.w3.org/2000/svg" width="24" height="24" viewBox="0 0 24 24" fill="none" stroke="currentColor" stroke-width="2" stroke-linecap="round" stroke-linejoin="round" >
  <path d="M6 6.25V8.25"/>
  <path d="M22 12V9C22 4 20 2 15 2H9C4 2 2 4 2 9V15C2 20 4 22 9 22H12"/>
  <path d="M10 6.25V8.25"/>
  <path d="M6 16V18"/>
  <path d="M10 16V18"/>
  <path d="M14 7.25H18"/>
  <path d="M2 12H22"/>
  <path d="M21.5604 20.33C21.0004 21.3 19.9504 21.95 18.7504 21.95C16.9604 21.95 15.8604 20.15 15.8604 20.15M15.9304 17.09C16.4904 16.11 17.5404 15.46 18.7504 15.46C20.9204 15.46 22.0004 17.26 22.0004 17.26M22.0004 15.25V17.25H20.0004M17.8604 20.14H15.8604V22"/>
  </svg>

<svg xmlns="http://www.w3.org/2000/svg" width="24" height="24" viewBox="0 0 24 24" fill="none" stroke="currentColor" stroke-width="2" stroke-linecap="round" stroke-linejoin="round">
  <path d="M10 16v2" />
  <path d="M10 6.25v2" />
  <path d="M14 7.25h4" />
  <path d="M15.93 17.09a3.23 3.23 0 0 1 2.82-1.63c2.17 0 3.25 1.8 3.25 1.8" />
  <path d="M17.86 20.14h-2V22" />
  <path d="M2 12h20V9c0-5-2-7-7-7H9C4 2 2 4 2 9v6c0 5 2 7 7 7h3" />
  <path d="M21.56 20.33a3.24 3.24 0 0 1-2.81 1.62c-1.79 0-2.89-1.8-2.89-1.8" />
  <path d="M22 15.25v2h-2" />
  <path d="M6 16v2" />
  <path d="M6 6.25v2" />
</svg>
